X:1
T:Title
%%score 1 { 2 | 3 }
L:1/8
Q:1/4=140
M:3/2
K:D
V:1 treble nm="Grand Piano, Soprano"
V:2 bass nm="Choir Pad, Aruba, LMD"
V:3 bass 
V:1
 D4 F2 A2 d4 | [Fd]4 [Ge]3 [Af] [Fd]4 | [FA]4 [GB]2 [GB]2 [FA]4 | D4 [CE]2 [DF]2 [CE]4 | %4
w: By~Chester~E.~Pond,~1880 * * *||||
 D4 F2 A2 d4 | [Fd]4 [Ge]3 [Af] [Fd]4 | [DF]4 [DG]2 [DB]2 [DA]4 | D4 [DF]2 [CE]2 D4 | %8
w: ||||
 A4 [Fd]3 [Fd] [Fd]4 | [FA]4 [GB]3 [Gd] [FA]4 | [FA]4 [Fd]3 [Fd] [Fd]4 | [FA]4 [GB]3 [Gd] [FA]4 | %12
w: ||||
 D4 F2 A2 d4 | [Fd]4 [Ge]3 [Af] [Fd]4 | [DF]4 [DG]2 [DB]2 [DA]4 | D4 [DF]2 [CE]2 D4- | D8 z4 |] %17
w: |||||
V:2
 D,4 F,2 A,2 D4 | D4[K:treble] C3 C D4 | D4 D2 D2 D4 | F,4 A,2 A,2 A,4 | D,4 F,2 A,2[K:treble] D4 | %5
 D4 C3 C D4 | A,4 G,2 G,2 F,4 | A,4 A,2 G,2 F,4 | A,4 A,3 A, A,4 | D4 D3 D D4 | %10
 A,4[K:bass] A,3 A, A,4 | D4 D3 D D4 | D,4 F,2 A,2[K:treble] D4 | D4 C3 C D4 | A,4 G,2 G,2 F,4 | %15
 A,4 A,2 G,2 F,4- | F,8 z4 |] %17
V:3
 z12 | z4 A,3 A, D,4 | D,4 G,2 G,2 D,4 | D,4 z4 A,,4 | z12 | z4 A,3 A, D,4 | D,4 B,,2 G,,2 D,4 | %7
 F,4 z2 A,,2 D,4 | z4 D,3 D, D,4 | D,4 G,,3 B,, D,4 | D,4 D,3 D, D,4 | D,4 G,,3 B,, D,4 | z12 | %13
 z4 A,3 A, D,4 | D,4 B,,2 G,,2 D,4 | F,4 z2 A,,2 D,4- | D,8 z4 |] %17

